X: 13956
T: Franc A'Phoill
R: jig
M: 6/8
K: Dmajor
|:A2F ABG|A2G FED|A2F ABF|G3 AFD|
A2F ABG|A2G FED|GAB cAF|1 G3 GFG:|2 G3 AFD||
|:dfa afd|def ecA|GAB cAF|G3 AFD|
dfa afa|geg fdA|GAB cAF|G3 AFD:|
|:d2e d2A|d2e dcA|d2e dcA|GFG AFD|
d2e d2A|d2e dcA|GAB cAF|G3 AFD:|
|:def def|def e^cA|def e^cA|GFG AFD|
def d2A|def e^cA|GAB cAF|G3 AFD:|
|:dDD cDD|BDD ADD|dDD cDD|G3 AFD|
dDD cDD|BDD ADD|GAB cAF|1 G3 AFD:|2 G3 GFG||

